packages/icon/src/svg/service-box.icon.svg

<svg width="24" height="24" viewBox="0 0 24 24" fill="none" xmlns="http://www.w3.org/2000/svg">
<path fill-rule="evenodd" clip-rule="evenodd" d="M12.8199 18.3099C15.1801 18.3099 17.1 16.4 17.1 14.0402C17.1 11.6801 15.1801 9.76013 12.8199 9.76013C11.1899 9.76013 9.77002 10.6801 9.05005 12.0302C8.32996 10.6801 6.91003 9.76013 5.28003 9.76013C4.31995 9.76013 3.43005 10.08 2.70996 10.62V7.00012C2.69995 6.55994 2.32996 6.18005 1.85999 6.18005C1.39001 6.18005 1 6.55994 1 7.00012V14.11C1.04004 16.4301 2.93994 18.3099 5.28003 18.3099C6.91003 18.3099 8.32996 17.39 9.05005 16.0402C9.77002 17.39 11.1899 18.3099 12.8199 18.3099ZM12.8201 11.4701C14.24 11.4701 15.39 12.62 15.39 14.0402C15.39 15.4501 14.24 16.6 12.8201 16.6C11.41 16.6 10.26 15.4501 10.26 14.0402C10.26 12.62 11.41 11.4701 12.8201 11.4701ZM7.83997 14.0402C7.83997 12.62 6.68994 11.4701 5.27991 11.4701C3.85999 11.4701 2.70996 12.62 2.70996 14.0402C2.70996 15.4501 3.85999 16.6 5.27991 16.6C6.68994 16.6 7.83997 15.4501 7.83997 14.0402ZM23 17.4701C23 17.2999 22.9501 17.12 22.8401 16.9601L20.66 14.0399L22.8401 11.11C22.9501 10.9701 23 10.7999 23 10.63C23 10.36 22.89 10.1 22.66 9.93005C22.29 9.65002 21.76 9.72009 21.5 10.09L19.5901 12.61L17.7001 10.09C17.41 9.72009 16.89 9.65002 16.5 9.93005C16.29 10.1 16.17 10.35 16.17 10.61C16.17 10.7899 16.2201 10.9601 16.3301 11.11L18.5 14.0399L16.3301 16.9601C16.2301 17.11 16.17 17.2899 16.17 17.4601C16.17 17.7201 16.29 18.0001 16.5 18.15C16.67 18.2601 16.8501 18.3199 17.03 18.3199C17.28 18.3199 17.53 18.2101 17.7001 18.0001L19.5901 15.4701L21.5 18.0001C21.65 18.2101 21.9 18.3199 22.15 18.3199C22.3301 18.3199 22.5 18.2601 22.66 18.15C22.88 18.0001 23 17.7301 23 17.4701Z" fill="white"/>
</svg>

<svg aria-label="service box icon" viewBox="0 0 24 24"><path fill-rule="evenodd" clip-rule="evenodd" d="M12.82 18.31c2.36 0 4.28-1.91 4.28-4.27 0-2.36-1.92-4.28-4.28-4.28-1.63 0-3.05.92-3.77 2.27a4.274 4.274 0 00-3.77-2.27c-.96 0-1.85.32-2.57.86V7a.85.85 0 00-.85-.82c-.47 0-.86.38-.86.82v7.11a4.275 4.275 0 008.05 1.93 4.274 4.274 0 003.77 2.27zm0-6.84a2.57 2.57 0 012.57 2.57 2.565 2.565 0 11-2.57-2.57zm-4.98 2.57c0-1.42-1.15-2.57-2.56-2.57a2.57 2.57 0 00-2.57 2.57 2.565 2.565 0 005.13 0zM23 17.47a.9.9 0 00-.16-.51l-2.18-2.92 2.18-2.93a.77.77 0 00.16-.48c0-.27-.11-.53-.34-.7-.37-.28-.9-.21-1.16.16l-1.91 2.52-1.89-2.52a.866.866 0 00-1.2-.16c-.21.17-.33.42-.33.68 0 .18.05.35.16.5l2.17 2.93-2.17 2.92c-.1.15-.16.33-.16.5 0 .26.12.54.33.69.17.11.35.17.53.17.25 0 .5-.11.67-.32l1.89-2.53L21.5 18c.15.21.4.32.65.32.18 0 .35-.06.51-.17a.83.83 0 00.34-.68z"/></svg>
